docs/img/map-pin.svg

<svg width="67" height="100" viewBox="0 0 67 100" fill="none" xmlns="http://www.w3.org/2000/svg">
<path d="M57.1276 9.15178C44.0322 -3.05059 22.917 -3.05059 9.82159 9.15178C-3.27386 21.3542 -3.27386 41.0962 9.82159 53.2986C9.82159 53.2986 33.4746 74.9256 33.4746 99.9256C33.4746 74.9256 57.1276 53.2986 57.1276 53.2986C70.2231 41.1954 70.2231 21.3542 57.1276 9.15178Z" fill="white"/>
<path d="M47.6871 45.164C47.078 41.8902 47.7886 38.3188 47.6871 34.9458C47.5856 31.1759 46.9765 27.5053 46.9765 23.8347C46.9765 20.8585 47.4841 17.6839 46.4689 14.8069C46.5704 14.5093 46.5704 14.1124 46.672 13.8148C46.9765 12.3267 42.0023 13.1204 41.2917 14.4101C40.7841 14.8069 40.581 15.3029 40.7841 15.6997C40.8856 15.7989 40.8856 15.8982 40.8856 16.0966C39.972 20.5608 38.6523 24.8267 37.1295 29.1918C36.5204 30.8783 35.9114 32.4656 35.3023 34.0529C34.4901 32.5648 33.678 30.9775 32.9674 29.3902C31.0386 24.6283 29.2114 19.7672 26.8765 15.2037C27.1811 13.1204 22.3083 13.3188 21.3947 15.2037C20.278 17.5847 20.3795 19.9656 20.7856 22.4458C21.1917 25.3228 21.2932 28.1005 21.2932 30.9775C21.3947 36.5331 21.8007 41.9894 21.9023 47.545C21.3947 48.1402 21.2932 48.7355 21.8007 49.4299C22.0038 49.7275 22.3083 49.9259 22.6129 50.2235C23.9326 51.2156 27.5871 50.422 27.5871 48.4378C27.5871 42.6839 27.1811 37.0291 26.978 31.2751C26.978 30.6799 26.978 30.1839 26.978 29.5886C27.0795 29.787 27.1811 29.9855 27.1811 30.1839C28.0947 32.3664 29.0083 34.5489 30.328 36.6323C31.5462 38.7156 32.1553 40.8982 32.8659 43.0807C32.5614 43.3783 32.4598 43.6759 32.5614 44.0728C32.4598 44.3704 32.6629 44.4696 32.9674 44.5688C33.8811 45.3624 35.6068 44.9656 36.5204 44.5688C36.9265 44.3704 37.3326 44.172 37.7386 43.9735C38.2462 43.6759 38.9568 42.9815 38.7538 42.3862C38.7538 42.287 38.6523 42.0886 38.6523 41.9894C39.3629 40.2037 39.6674 38.418 40.0735 36.5331C40.4795 34.5489 41.1901 32.664 41.9007 30.7791C42.0023 31.672 42.0023 32.4656 42.1038 33.3585C42.4083 36.9299 42.1038 40.4021 42.1038 43.9735C42.1038 45.164 42.2053 46.2553 42.4083 47.3466C42.5098 47.8426 42.9159 49.8267 42.8144 49.9259C41.9007 50.7196 42.2053 51.7116 43.322 51.9101C44.6417 52.2077 46.2659 51.8109 47.281 50.918C48.9053 49.5291 48.0932 47.1482 47.6871 45.164Z" fill="#6BC6B3"/>
</svg>

<svg width="67" height="100" fill="none" xmlns="http://www.w3.org/2000/svg"><path d="M57.128 9.152c-13.096-12.203-34.211-12.203-47.306 0-13.096 12.202-13.096 31.944 0 44.147 0 0 23.653 21.627 23.653 46.627 0-25 23.653-46.627 23.653-46.627 13.095-12.104 13.095-31.945 0-44.147Z" fill="#fff"/><path d="M47.687 45.164c-.609-3.274.102-6.845 0-10.218-.101-3.77-.71-7.44-.71-11.111 0-2.977.507-6.151-.508-9.028.101-.298.101-.695.203-.992.305-1.488-4.67-.695-5.38.595-.508.397-.711.893-.508 1.29.102.099.102.198.102.397-.914 4.464-2.234 8.73-3.757 13.095a257.52 257.52 0 0 1-1.827 4.86 67.034 67.034 0 0 1-2.335-4.662c-1.928-4.762-3.756-9.623-6.09-14.186.304-2.084-4.569-1.885-5.482 0-1.117 2.38-1.015 4.762-.61 7.242.407 2.877.508 5.654.508 8.531.102 5.556.508 11.012.61 16.568-.508.595-.61 1.19-.102 1.885.203.297.507.496.812.794 1.32.992 4.974.198 4.974-1.786 0-5.754-.406-11.409-.609-17.163V29.59c.101.198.203.396.203.595.914 2.182 1.827 4.365 3.147 6.448 1.218 2.084 1.827 4.266 2.538 6.449-.305.297-.406.595-.305.992-.101.297.102.397.406.496.914.793 2.64.397 3.553 0l1.219-.596c.507-.297 1.218-.992 1.015-1.587 0-.099-.102-.297-.102-.397.71-1.785 1.015-3.571 1.422-5.456.406-1.984 1.116-3.869 1.827-5.754.101.893.101 1.687.203 2.58.304 3.57 0 7.043 0 10.614 0 1.191.101 2.282.304 3.374.102.496.508 2.48.406 2.579-.913.794-.609 1.786.508 1.984 1.32.298 2.944-.1 3.959-.992 1.624-1.389.812-3.77.406-5.754Z" fill="#6BC6B3"/></svg>
